icons/badge/check/shield.svg

<svg width="32" height="32" viewBox="0 0 32 32" fill="none" xmlns="http://www.w3.org/2000/svg">
<path fill-rule="evenodd" clip-rule="evenodd" d="M16.5195 1.1041C16.1793 1.01262 15.821 1.01262 15.4808 1.1041L3.48078 4.33085C2.60725 4.56573 2.00012 5.35769 2.00012 6.26224V12C2.00012 21.4849 8.33424 28.3497 15.7254 30.4615L16.0001 30.54L16.2748 30.4615C23.666 28.3497 30.0001 21.4849 30.0001 12V6.26224C30.0001 5.35769 29.393 4.56573 28.5195 4.33085L16.5195 1.1041ZM4.00012 6.26224L16.0001 3.03549L28.0001 6.26224L28.0001 12C28.0001 20.3968 22.4905 26.4794 16.0001 28.4573C9.50976 26.4794 4.00012 20.3968 4.00012 12L4.00012 6.26224ZM14.7071 19.7071L22.7071 11.7071L21.2929 10.2929L14 17.5858L10.2071 13.7929L8.79289 15.2071L13.2929 19.7071L14 20.4142L14.7071 19.7071Z" fill="black"/>
</svg>

<svg width="32" height="32" viewBox="0 0 32 32" xmlns="http://www.w3.org/2000/svg">
    <path fill-rule="evenodd" d="M16.52 1.104a2 2 0 00-1.04 0l-12 3.227A2 2 0 002 6.262V12c0 9.485 6.334 16.35 13.725 18.462l.275.078.275-.078C23.666 28.35 30 21.485 30 12V6.262a2 2 0 00-1.48-1.931l-12-3.227zM4 6.262l12-3.227 12 3.227V12c0 8.397-5.51 14.48-12 16.457C9.51 26.48 4 20.397 4 12V6.262zm10.707 13.445l8-8-1.414-1.414L14 17.586l-3.793-3.793-1.414 1.414 4.5 4.5.707.707.707-.707z"/>
</svg>
